public/favicon.svg

<svg xmlns="http://www.w3.org/2000/svg" version="1.1" xmlns:xlink="http://www.w3.org/1999/xlink" xmlns:svgjs="http://svgjs.com/svgjs" width="40" height="40"><svg width="40" height="40" viewBox="0 0 40 40" fill="none" xmlns="http://www.w3.org/2000/svg">
<path d="M39.7111 0.225393C39.498 0.014768 39.1829 -0.0555443 38.901 0.0455492L6.49763 11.6156C5.37189 10.9262 3.944 10.7648 2.63438 11.3079C0.460513 12.2097 -0.575592 14.7144 0.324846 16.8915C2.44831 22.025 5.51419 26.62 9.43759 30.549C13.361 34.478 17.9495 37.5483 23.0757 39.6747C23.6081 39.8955 24.1599 40 24.7032 40C26.3785 39.9999 27.9715 39.0058 28.6514 37.3618C29.1088 36.2557 29.0656 35.0652 28.628 34.0431L39.9012 1.03422C39.9981 0.75047 39.9243 0.436095 39.7111 0.225393ZM11.4039 11.5226L14.8381 10.2965C15.2413 10.7266 15.4378 11.3188 15.3591 11.9177C15.2897 12.4451 15.0194 12.9139 14.5981 13.2377C14.1767 13.5615 13.655 13.7015 13.128 13.6322C12.6015 13.5627 12.1334 13.2922 11.81 12.8701C11.5121 12.4813 11.3703 12.0069 11.4039 11.5226ZM27.2098 36.7638C26.6386 38.1448 25.0516 38.803 23.6728 38.2309C13.6839 34.0875 5.9041 26.2966 1.76647 16.2935C1.48975 15.6245 1.48975 14.8877 1.76647 14.2186C2.04318 13.5497 2.56346 13.0286 3.2315 12.7515C3.89953 12.4744 4.63536 12.4744 5.30339 12.7515C5.97143 13.0286 6.4917 13.5497 6.76842 14.2186C8.53942 18.5004 11.0967 22.3331 14.3693 25.6103C17.6418 28.8874 21.469 31.4483 25.7447 33.2219C27.1239 33.7938 27.7811 35.3828 27.2098 36.7638ZM34.1408 13.0726C34.0702 13.0708 33.9995 13.0668 33.929 13.0576C33.4025 12.9881 32.9344 12.7175 32.6111 12.2955C32.2878 11.8736 32.1479 11.3507 32.2172 10.8234C32.3603 9.73483 33.3608 8.96592 34.4483 9.10905C34.7837 9.15327 35.0987 9.28358 35.3673 9.48178L34.1408 13.0726ZM35.8859 7.96272C35.5058 7.75546 35.0882 7.61741 34.6519 7.55991C32.7116 7.30343 30.9256 8.67663 30.6702 10.6195C30.5465 11.5606 30.7961 12.4936 31.3732 13.2468C31.9291 13.9722 32.7248 14.4461 33.6224 14.5906L32.0718 19.1311L30.2886 17.7608C29.9468 17.4983 29.4569 17.5627 29.1947 17.905C28.9325 18.2474 28.997 18.7378 29.3388 19.0004L31.5391 20.6912L27.5063 32.5002C27.168 32.2056 26.7785 31.9592 26.3422 31.7782C18.0742 28.3486 11.6349 21.9002 8.21035 13.6207C8.09131 13.3327 7.94339 13.0654 7.77277 12.8191L9.86191 12.0732C9.93486 12.7035 10.1765 13.3047 10.5722 13.8212C11.1492 14.5743 11.9847 15.0573 12.9244 15.1811C13.0819 15.2019 13.2388 15.2122 13.395 15.2122C14.1711 15.2122 14.9219 14.9583 15.548 14.4773C16.3001 13.8993 16.7823 13.0629 16.9061 12.1216C17.0171 11.2767 16.8202 10.4398 16.3781 9.74655L26.0758 6.2839L26.4433 7.17249C26.5678 7.47335 26.8583 7.65499 27.1644 7.65499C27.2639 7.65499 27.365 7.63577 27.4627 7.5953C27.8607 7.43022 28.0497 6.97311 27.8849 6.57452L27.5474 5.75851L37.9013 2.06148L35.8859 7.96272Z" fill="#FF7010"></path>
<path d="M8.42545 20.9588C8.42311 20.9552 8.41664 20.9453 8.41414 20.9417C8.17526 20.5828 7.69181 20.4865 7.33333 20.7255C6.97548 20.9641 6.87843 21.4484 7.11528 21.8074C7.26468 22.0372 7.51464 22.1626 7.76998 22.1626C7.91446 22.1626 8.06058 22.1224 8.19102 22.0385C8.55347 21.8051 8.6584 21.3217 8.42545 20.9588Z" fill="#FF7010"></path>
<path d="M7.23894 19.0183C6.47869 17.6835 5.79529 16.2864 5.20777 14.8662C5.04292 14.4675 4.58631 14.2784 4.18851 14.4435C3.79041 14.6086 3.60146 15.0656 3.76638 15.4642C4.37879 16.9447 5.09121 18.401 5.88368 19.7924C6.02762 20.045 6.29099 20.1867 6.56201 20.1867C6.69308 20.1867 6.82594 20.1536 6.94779 20.084C7.32203 19.8702 7.45247 19.3931 7.23894 19.0183Z" fill="#FF7010"></path>
<path d="M24.4131 9.99904C24.2585 9.97857 24.1015 9.96826 23.9464 9.96826C22.1741 9.96826 20.663 11.2968 20.4314 13.0585C20.176 15.0013 21.5465 16.79 23.4866 17.0458C23.6412 17.0663 23.7982 17.0766 23.9533 17.0766C25.7255 17.0766 27.2366 15.7481 27.4682 13.9862C27.7236 12.0435 26.3531 10.2548 24.4131 9.99904ZM25.9214 13.7823C25.7916 14.7696 24.9455 15.514 23.9533 15.514C23.8661 15.514 23.7775 15.5083 23.6902 15.4967C22.6031 15.3533 21.8353 14.3511 21.9784 13.2624C22.1082 12.2752 22.9542 11.5308 23.9464 11.5308C24.0336 11.5308 24.1221 11.5366 24.2094 11.5482C25.2965 11.6916 26.0645 12.6938 25.9214 13.7823Z" fill="#FF7010"></path>
<path d="M24.2101 19.7168C24.0554 19.6963 23.8985 19.686 23.7434 19.686C21.9711 19.686 20.46 21.0145 20.2284 22.7763C20.1046 23.7175 20.3543 24.6505 20.9314 25.4037C21.5083 26.1568 22.3437 26.6398 23.2836 26.7638C23.4381 26.7841 23.5951 26.7944 23.7501 26.7944C25.5223 26.7944 27.0335 25.4659 27.2652 23.704C27.5207 21.7613 26.1501 19.9728 24.2101 19.7168ZM25.7184 23.5002C25.5886 24.4874 24.7424 25.2319 23.7502 25.2319C23.6631 25.2319 23.5745 25.226 23.4873 25.2145C22.9607 25.145 22.4926 24.8744 22.1693 24.4524C21.8459 24.0305 21.706 23.5077 21.7754 22.9802C21.9052 21.9931 22.7513 21.2486 23.7434 21.2486C23.8306 21.2486 23.9191 21.2544 24.0064 21.266C25.0934 21.4093 25.8614 22.4116 25.7184 23.5002Z" fill="#FF7010"></path>
<path d="M19.0646 16.4803L16.6668 16.1641C16.2398 16.1073 15.8477 16.4089 15.7914 16.8366C15.7351 17.2644 16.0359 17.6568 16.463 17.7132L18.8608 18.0293C18.8954 18.0339 18.9297 18.0361 18.9637 18.0361C19.3491 18.0361 19.6844 17.75 19.7361 17.3568C19.7925 16.9291 19.4918 16.5366 19.0646 16.4803Z" fill="#FF7010"></path>
<path d="M17.8488 22.2457L17.6371 20.6345C17.5808 20.2067 17.189 19.9054 16.7618 19.9619C16.3346 20.0182 16.034 20.4106 16.0902 20.8384L16.302 22.4496C16.3537 22.8428 16.6889 23.129 17.0744 23.129C17.1084 23.129 17.1427 23.1268 17.1772 23.1222C17.6044 23.0659 17.905 22.6735 17.8488 22.2457Z" fill="#FF7010"></path>
</svg><style>@media (prefers-color-scheme: light) { :root { filter: contrast(1) brightness(1); } }
</style></svg>

<svg width="40" height="40" viewBox="0 0 40 40" fill="none" xmlns="http://www.w3.org/2000/svg"><path d="M39.711.225a.779.779 0 0 0-.81-.18L6.498 11.616a4.26 4.26 0 0 0-3.864-.307 4.28 4.28 0 0 0-2.31 5.584 41.895 41.895 0 0 0 9.114 13.657c3.923 3.929 8.511 7 13.638 9.126a4.24 4.24 0 0 0 1.627.325 4.274 4.274 0 0 0 3.948-2.638 4.266 4.266 0 0 0-.023-3.319L39.901 1.034a.782.782 0 0 0-.19-.809ZM11.404 11.523l3.434-1.226a1.99 1.99 0 0 1-.24 2.94 1.974 1.974 0 0 1-1.47.395 1.975 1.975 0 0 1-1.318-.762 1.979 1.979 0 0 1-.406-1.347Zm15.806 25.24a2.709 2.709 0 0 1-3.537 1.468c-9.99-4.144-17.769-11.934-21.907-21.938a2.697 2.697 0 0 1 0-2.074 2.691 2.691 0 0 1 1.466-1.467 2.686 2.686 0 0 1 2.071 0 2.691 2.691 0 0 1 1.465 1.467A34.941 34.941 0 0 0 14.37 25.61a34.888 34.888 0 0 0 11.376 7.612 2.715 2.715 0 0 1 1.465 3.542Zm6.93-23.69a1.975 1.975 0 0 1-1.53-.777 1.991 1.991 0 0 1 1.837-3.186c.337.043.652.174.92.372l-1.226 3.59Zm1.746-5.11a3.545 3.545 0 0 0-5.216 2.657 3.534 3.534 0 0 0 .703 2.627 3.522 3.522 0 0 0 2.25 1.344l-1.551 4.54-1.783-1.37a.78.78 0 1 0-.95 1.24l2.2 1.69-4.033 11.81a4.248 4.248 0 0 0-1.164-.723C18.074 28.348 11.635 21.9 8.21 13.621a4.272 4.272 0 0 0-.437-.802l2.089-.746c.073.63.315 1.232.71 1.748a3.524 3.524 0 0 0 2.823 1.391 3.52 3.52 0 0 0 2.153-.735 3.532 3.532 0 0 0 1.358-2.355 3.552 3.552 0 0 0-.528-2.375l9.698-3.463.367.888a.78.78 0 1 0 1.442-.597l-.338-.816L37.901 2.06l-2.015 5.902Z" fill="#FF7010"/><path d="M8.425 20.959a.778.778 0 0 0-1.092-.233.783.783 0 0 0-.218 1.081.78.78 0 0 0 1.31-.848ZM7.239 19.018a36.997 36.997 0 0 1-2.031-4.152.78.78 0 1 0-1.442.598 38.559 38.559 0 0 0 2.118 4.328.78.78 0 1 0 1.355-.774ZM24.413 9.999a3.559 3.559 0 0 0-3.982 3.06 3.557 3.557 0 0 0 3.522 4.018 3.559 3.559 0 0 0 3.515-3.09 3.557 3.557 0 0 0-3.055-3.988Zm1.508 3.783a1.993 1.993 0 0 1-2.23 1.715 1.993 1.993 0 0 1-1.713-2.235 1.993 1.993 0 0 1 2.231-1.714 1.993 1.993 0 0 1 1.712 2.234ZM24.21 19.717a3.559 3.559 0 0 0-3.982 3.06 3.534 3.534 0 0 0 .703 2.627 3.524 3.524 0 0 0 2.82 1.39 3.559 3.559 0 0 0 3.514-3.09 3.557 3.557 0 0 0-3.055-3.987Zm1.508 3.783a1.993 1.993 0 0 1-2.23 1.715 1.975 1.975 0 0 1-1.319-.763 1.993 1.993 0 0 1 1.837-3.186 1.993 1.993 0 0 1 1.712 2.234ZM19.065 16.48l-2.398-.316a.78.78 0 0 0-.204 1.55l2.398.315a.78.78 0 0 0 .875-.672.78.78 0 0 0-.671-.877ZM17.849 22.246l-.212-1.611a.78.78 0 1 0-1.547.203l.212 1.612a.78.78 0 1 0 1.547-.204Z" fill="#FF7010"/>
</svg>
